svg/link.svg

<?xml version="1.0" encoding="UTF-8"?>
<svg xmlns="http://www.w3.org/2000/svg" xmlns:xlink="http://www.w3.org/1999/xlink" width="32" height="32" viewBox="0 0 32 32">
<path fill-rule="evenodd" fill="rgb(0%, 0%, 0%)" fill-opacity="1" d="M 16.515625 15.066406 C 16.957031 13.007812 18.773438 11.539062 20.878906 11.535156 L 25.535156 11.535156 C 28 11.535156 30 13.535156 30 16 C 29.996094 17.179688 29.527344 18.3125 28.691406 19.148438 C 27.855469 19.988281 26.71875 20.460938 25.535156 20.464844 L 20.878906 20.464844 C 20.210938 20.464844 19.554688 20.316406 18.953125 20.023438 L 18.941406 20.019531 C 18.355469 19.734375 17.839844 19.324219 17.425781 18.820312 C 17.191406 18.527344 17.15625 18.121094 17.335938 17.792969 C 17.511719 17.460938 17.871094 17.269531 18.242188 17.304688 C 18.488281 17.332031 18.71875 17.453125 18.875 17.644531 C 19.105469 17.933594 19.402344 18.167969 19.734375 18.335938 L 19.769531 18.351562 C 20.117188 18.515625 20.496094 18.601562 20.878906 18.601562 L 25.535156 18.601562 C 26.226562 18.601562 26.886719 18.324219 27.371094 17.835938 C 27.859375 17.347656 28.132812 16.6875 28.132812 16 C 28.132812 15.308594 27.855469 14.65625 27.371094 14.164062 C 26.882812 13.675781 26.222656 13.402344 25.535156 13.398438 L 20.878906 13.398438 C 19.804688 13.402344 18.84375 14.066406 18.453125 15.066406 L 22.515625 15.066406 C 22.765625 15.066406 23 15.164062 23.175781 15.339844 C 23.351562 15.515625 23.449219 15.753906 23.445312 16 C 23.449219 16.246094 23.351562 16.484375 23.175781 16.660156 C 23 16.832031 22.765625 16.929688 22.515625 16.929688 L 15.484375 16.929688 C 15.304688 17.769531 14.882812 18.542969 14.273438 19.148438 C 13.441406 19.988281 12.304688 20.464844 11.121094 20.464844 L 6.464844 20.464844 C 4 20.464844 2 18.464844 2 16 C 2.003906 13.535156 4 11.539062 6.464844 11.535156 L 11.121094 11.535156 C 11.835938 11.535156 12.535156 11.703125 13.167969 12.035156 C 13.804688 12.367188 14.351562 12.847656 14.769531 13.429688 C 15.0625 13.851562 14.964844 14.429688 14.550781 14.730469 C 14.347656 14.875 14.097656 14.933594 13.855469 14.890625 C 13.613281 14.847656 13.394531 14.710938 13.25 14.511719 C 12.761719 13.816406 11.96875 13.402344 11.121094 13.398438 L 6.464844 13.398438 C 5.777344 13.402344 5.117188 13.675781 4.628906 14.164062 C 3.613281 15.179688 3.613281 16.820312 4.628906 17.835938 C 5.117188 18.324219 5.777344 18.601562 6.464844 18.601562 L 11.121094 18.601562 C 11.808594 18.597656 12.46875 18.324219 12.953125 17.835938 C 13.210938 17.578125 13.414062 17.269531 13.546875 16.929688 L 9.730469 16.929688 C 9.484375 16.929688 9.246094 16.832031 9.070312 16.660156 C 8.710938 16.292969 8.710938 15.707031 9.070312 15.339844 C 9.246094 15.164062 9.484375 15.066406 9.730469 15.066406 Z M 16.515625 15.066406 "/>
</svg>

<svg role="img" viewBox="0 0 32 32" height="32" width="32" xmlns="http://www.w3.org/2000/svg"><path d="M16.516 15.066a4.468 4.468 0 0 1 4.363-3.53h4.656A4.465 4.465 0 0 1 30 16a4.473 4.473 0 0 1-1.309 3.148 4.476 4.476 0 0 1-3.156 1.317H20.88a4.388 4.388 0 0 1-1.926-.442l-.012-.003a4.528 4.528 0 0 1-1.515-1.2.931.931 0 0 1-.09-1.027.927.927 0 0 1 .906-.488.955.955 0 0 1 .633.34c.23.289.527.523.86.69l.035.017a2.6 2.6 0 0 0 1.109.25h4.656c.692 0 1.352-.278 1.836-.766A2.596 2.596 0 0 0 28.133 16c0-.691-.278-1.344-.762-1.836a2.617 2.617 0 0 0-1.836-.766H20.88a2.618 2.618 0 0 0-2.426 1.668h4.063a.928.928 0 0 1 .93.934.915.915 0 0 1-.27.66.94.94 0 0 1-.66.27h-7.032a4.443 4.443 0 0 1-1.21 2.218 4.443 4.443 0 0 1-3.153 1.317H6.465C4 20.465 2 18.465 2 16c.004-2.465 2-4.46 4.465-4.465h4.656c.715 0 1.414.168 2.047.5a4.588 4.588 0 0 1 1.602 1.395c.293.422.195 1-.22 1.3a.922.922 0 0 1-.695.16.957.957 0 0 1-.605-.378 2.615 2.615 0 0 0-2.129-1.114H6.465a2.617 2.617 0 0 0-1.836.766 2.593 2.593 0 0 0 0 3.672 2.6 2.6 0 0 0 1.836.766h4.656a2.6 2.6 0 0 0 1.832-.766c.258-.258.461-.566.594-.906H9.73a.947.947 0 0 1-.66-.27.943.943 0 0 1 0-1.32.935.935 0 0 1 .66-.274Zm0 0"/></svg>
